Obsidian/status/16s/mouse-battery-low.svg

<svg height="16" width="16" xmlns="http://www.w3.org/2000/svg"><g fill="#d3dae3"><path d="m2.5 1.99965c-.277 0-.5.223-.5.5v.5l-2-.002v-.0003 10.50265c0 .277.223.5.5.5h6c.277 0 .5-.223.5-.5v-10.50165l-.5.002h-1.5v-.5c0-.277-.223-.5-.5-.5z" opacity=".3"/><path d="m12 2.0000009c-1.762728 0-3 1.5069991-3 3.9999991h3zm1 0v3.9999991h3c0-2.493-1.237272-3.9999991-3-3.9999991zm-4 4.9999991v2.5000005c0 2.4929995 1.419091 4.4999995 3.181818 4.4999995h.636364c1.762727 0 3.181818-2.007 3.181818-4.4999995v-2.5000005h-3.181818z"/><path d="m0 10v3.5c0 .277.223.5.5.5h6c.277 0 .5-.223.5-.5v-3.5z"/></g></svg>

<svg xmlns="http://www.w3.org/2000/svg" width="16" height="16" version="1.1">
 <defs>
  <style id="current-color-scheme" type="text/css">
   .ColorScheme-Text { color:#d3dae3; } .ColorScheme-Highlight { color:#5294e2; }
  </style>
 </defs>
 <path style="opacity:0.3;fill:currentColor" class="ColorScheme-Text" d="m 2.5,1.99965 c -0.277,0 -0.5,0.223 -0.5,0.5 l 0,0.5 -2,-0.002 0,-3e-4 L 0,13.5 C 0,13.777 0.223,14 0.5,14 l 6,0 C 6.777,14 7,13.777 7,13.5 l 0,-10.50165 -0.5,0.002 -1.5,0 0,-0.5 c 0,-0.277 -0.223,-0.5 -0.5,-0.5 z"/>
 <path style="fill:currentColor" class="ColorScheme-Text" d="M 12,2.0000009 C 10.237272,2.0000009 9,3.507 9,6 l 3,0 z m 1,0 L 13,6 16,6 C 16,3.507 14.762728,2.0000009 13,2.0000009 Z M 9,7 9,9.5000005 C 9,11.993 10.419091,14 12.181818,14 l 0.636364,0 C 14.580909,14 16,11.993 16,9.5000005 L 16,7 12.818182,7 Z"/>
 <path style="fill:currentColor" class="ColorScheme-Text" d="m 0,10 0,3.5 C 0,13.777 0.223,14 0.5,14 l 6,0 C 6.777,14 7,13.777 7,13.5 L 7,10 Z"/>
</svg>
